X:121
T:Chisholm, The
T:'S Toigh Leam Fh\'ein an t-Siosalach
R:Strathspey
B:The Athole Collection
M:C
L:1/8
K:F
A|F<F F2 F>Ac>A|F<F FA d>DD>E|F<F F2 F>Ac>A|G>B A<^c d>D D>A|
F<F F>Ac>A|F<F F>A d>D D<A|F<F F2 F>Ac>A|B>G A<^c d>DD||
a|f>ga>g f>c A<F|A<f f>g a>d d<e|f>ga>g f<cA<F|G>B A>^c d>D D<a|
f>ga>g f>c A<F|A<f f>g a<d d>f|(3agf (3efg (3fed (3cBA|(3BAG (3AB^c d<DD||

